lib/preview/nrk-logo-preview-nrk-sport-with-bg.svg

<svg width="93" height="24" viewBox="0 0 93 24" fill="none" xmlns="http://www.w3.org/2000/svg">
<rect width="93" height="24" fill="#E81502"/>
<path d="M6.00427 18V6.00109H9.94146V18H6.00427ZM15.2981 7.91078L17.5623 18H13.2534L10.5498 6.00109H12.9664C13.5206 5.9939 14.0583 6.18925 14.4788 6.55039C14.8999 6.89638 15.1892 7.3767 15.2981 7.91078ZM18.1538 18V6.00109H22.091V18H18.1538ZM25.0647 10.5641C24.6405 10.5682 24.223 10.4572 23.8568 10.243C23.4955 10.0341 23.1954 9.73396 22.9865 9.3726C22.7721 9.00633 22.661 8.58876 22.6652 8.16432C22.6604 7.74246 22.7715 7.32738 22.9865 6.96443C23.1976 6.60699 23.4974 6.31009 23.8568 6.10252C24.2231 5.8885 24.6405 5.77751 25.0647 5.78138C25.4865 5.77684 25.9014 5.88793 26.2645 6.10252C26.6203 6.31191 26.9169 6.60856 27.1263 6.96443C27.3411 7.32748 27.4522 7.74249 27.4476 8.16432C27.4515 8.58873 27.3405 9.00623 27.1263 9.3726C26.9191 9.73238 26.6222 10.0323 26.2645 10.243C25.9014 10.458 25.4862 10.5691 25.0642 10.5641H25.0647ZM28.0559 18V6.00109H31.9934V18H28.0559ZM36.978 12.5582C36.9891 12.5699 37.0735 12.7079 37.2314 12.9723C37.3893 13.2367 37.5949 13.5747 37.8482 13.9863C38.1017 14.3977 38.3692 14.8343 38.6506 15.296C38.932 15.7577 39.1969 16.1944 39.4451 16.6058C39.6924 17.0172 39.974 17.4819 40.29 18H35.9641C35.6936 17.5606 35.4484 17.1635 35.2287 16.8086C35.0091 16.4537 34.7756 16.0706 34.5281 15.6594C34.2801 15.2485 34.0349 14.8485 33.7925 14.4595C33.5501 14.0704 33.3418 13.7296 33.1675 13.4371C32.9925 13.1443 32.8713 12.9471 32.8039 12.8455C32.6368 12.5934 32.5379 12.3023 32.517 12.0005C32.5337 11.7109 32.6269 11.431 32.787 11.1891C32.8546 11.0764 32.9786 10.8764 33.1588 10.5891C33.339 10.3018 33.5503 9.96105 33.7925 9.56672C34.0347 9.17239 34.2799 8.7696 34.5281 8.35837C34.7763 7.94715 35.0098 7.56124 35.2287 7.20071C35.4488 6.84055 35.6939 6.44059 35.9641 6.00081H40.29L36.9439 11.4595C36.8404 11.6216 36.782 11.8083 36.7749 12.0005C36.786 12.2023 36.8565 12.3963 36.9774 12.5582H36.978Z" fill="white"/>
<path d="M52.2273 12.3844C51.9812 12.1337 51.6954 11.9251 51.3816 11.7671C51.0527 11.6006 50.7104 11.462 50.3584 11.3527C49.9975 11.2399 49.6255 11.144 49.2421 11.0649C48.9485 10.9974 48.6751 10.9299 48.4217 10.8622C48.1889 10.8021 47.9624 10.7199 47.7452 10.6167C47.5585 10.5283 47.385 10.4145 47.2296 10.2784C47.0832 10.1494 46.97 9.98706 46.8995 9.80511C46.8217 9.59108 46.7845 9.36442 46.7899 9.13675C46.7861 8.901 46.8232 8.66639 46.8995 8.4433C46.969 8.24654 47.085 8.06952 47.2378 7.92741C47.3961 7.78247 47.5758 7.66279 47.7706 7.57254C47.9934 7.47096 48.2299 7.40255 48.4725 7.36955C48.761 7.32842 49.0521 7.30865 49.3435 7.31036C49.609 7.31088 49.8744 7.32491 50.1385 7.35238C50.4056 7.38026 50.671 7.42268 50.9334 7.47949C51.1883 7.53479 51.4397 7.60539 51.6861 7.69091C51.9168 7.77025 52.1403 7.8692 52.3541 7.98664L52.5909 6.49851C52.3504 6.37303 52.0984 6.27109 51.8383 6.19408C51.5733 6.11533 51.3055 6.04757 51.0349 5.99081C50.761 5.93421 50.4844 5.89197 50.2061 5.86425C49.9242 5.83606 49.6367 5.82196 49.3435 5.82196C48.7454 5.81546 48.1488 5.88354 47.5676 6.02464C47.0726 6.14418 46.6049 6.35666 46.1892 6.65074C45.8062 6.9255 45.498 7.29169 45.2928 7.71599C45.0738 8.19293 44.9668 8.7136 44.9798 9.23822C44.9701 9.64422 45.0361 10.0485 45.1743 10.4303C45.2956 10.7505 45.483 11.0416 45.7241 11.2848C45.9625 11.5227 46.2362 11.7224 46.5356 11.8767C46.8532 12.0403 47.1843 12.1763 47.5253 12.283C47.8805 12.3957 48.2442 12.4916 48.6163 12.5705C48.9207 12.638 49.2026 12.7084 49.462 12.7819C49.7032 12.8484 49.9381 12.9361 50.1639 13.0441C50.3579 13.1357 50.5374 13.2553 50.6966 13.3992C50.8477 13.5412 50.966 13.7143 51.0433 13.9067C51.1329 14.1384 51.176 14.3855 51.1702 14.6339C51.1746 14.8981 51.1346 15.1611 51.0518 15.412C50.9776 15.6289 50.8628 15.8298 50.7135 16.0039C50.5635 16.1755 50.379 16.3137 50.1723 16.4096C49.9385 16.5173 49.6908 16.5913 49.4363 16.6297C49.1258 16.6774 48.812 16.7 48.4978 16.6974C48.1925 16.6966 47.8874 16.6768 47.5845 16.6382C47.2688 16.5987 46.9531 16.5451 46.6374 16.4772C46.3262 16.411 46.0186 16.3291 45.7156 16.232C45.4168 16.1367 45.1321 16.0381 44.8615 15.9363L45.0813 17.6107C45.3697 17.7183 45.6632 17.8114 45.9608 17.8895C46.231 17.9605 46.5049 18.0169 46.7812 18.0587C47.0458 18.0979 47.3107 18.1289 47.576 18.1517C47.8414 18.1744 48.1091 18.1857 48.3792 18.1855C48.9847 18.1893 49.5888 18.1269 50.1807 17.9994C50.7048 17.8896 51.2038 17.6831 51.6522 17.3906C52.0706 17.1136 52.409 16.7316 52.6333 16.2827C52.8804 15.7511 52.9991 15.1688 52.98 14.5829C52.9892 14.1464 52.9233 13.7115 52.7854 13.2972C52.6674 12.9562 52.477 12.6448 52.2273 12.3844Z" fill="white"/>
<path d="M61.5298 9.72054C60.9227 9.34889 60.22 9.16363 59.5086 9.18776C59.0864 9.18985 58.6661 9.24371 58.257 9.34815C57.8149 9.46072 57.3888 9.62845 56.9885 9.84738C56.909 9.89023 56.8301 9.93844 56.7517 9.98664V9.20466L55.0266 9.4753V21.5513H56.7517V17.7646C56.7633 17.7694 56.774 17.7748 56.7856 17.7799C57.0981 17.9096 57.4243 18.0032 57.7581 18.0589C58.1521 18.1239 58.5509 18.155 58.9502 18.1519C59.7118 18.1651 60.4627 17.9722 61.1236 17.5935C61.7727 17.2089 62.3002 16.6492 62.6458 15.9786C63.0452 15.1789 63.2399 14.2926 63.2124 13.3992C63.2283 12.6438 63.0811 11.8938 62.7808 11.2005C62.5164 10.5961 62.0817 10.0818 61.5298 9.72054ZM61.0816 15.3781C60.8784 15.8272 60.5378 16.2003 60.109 16.4434C59.6324 16.6932 59.0993 16.8156 58.5614 16.7989C58.3038 16.7991 58.0465 16.7792 57.7919 16.7394C57.5247 16.6968 57.2616 16.6319 57.0054 16.5452C56.9242 16.517 56.8363 16.4848 56.7517 16.4538V11.1162C56.774 11.1057 56.7971 11.0922 56.8194 11.0821C57.0672 10.9693 57.2984 10.8734 57.5128 10.7943C57.7157 10.7185 57.9252 10.6619 58.1386 10.6251C58.3286 10.5924 58.5209 10.5754 58.7137 10.5744C59.235 10.557 59.7524 10.6704 60.2187 10.9042C60.6266 11.1262 60.9459 11.4813 61.1236 11.9103C61.3386 12.4592 61.4394 13.0462 61.4196 13.6355C61.4375 14.2342 61.3221 14.8295 61.0816 15.3781Z" fill="white"/>
<path d="M71.458 9.72893C70.7533 9.35443 69.964 9.16804 69.1663 9.18772C68.3611 9.16925 67.5651 9.36166 66.8573 9.74586C66.2038 10.1115 65.6695 10.6576 65.3181 11.3188C64.9364 12.0605 64.7474 12.8864 64.7684 13.7203C64.7469 14.5478 64.9238 15.3684 65.2843 16.1135C65.6083 16.764 66.1251 17.2986 66.7642 17.6445C67.4523 18.0049 68.2203 18.1852 68.9968 18.1685C69.8097 18.1847 70.6132 17.9926 71.3309 17.6107C72.0011 17.2451 72.5506 16.6927 72.9126 16.0205C73.3053 15.2701 73.5003 14.4319 73.4792 13.5852C73.4984 12.7787 73.3182 11.9798 72.9546 11.2596C72.6177 10.6129 72.0969 10.0804 71.458 9.72893ZM71.3563 15.395C71.1662 15.8344 70.8442 16.2039 70.4348 16.4521C70.0233 16.6876 69.5557 16.8074 69.0817 16.7988C68.6167 16.8104 68.1584 16.6869 67.7622 16.4434C67.3702 16.183 67.0641 15.8123 66.8826 15.3781C66.6524 14.821 66.5429 14.2215 66.5613 13.6191C66.5413 13.0328 66.651 12.4494 66.8826 11.9105C67.0724 11.4869 67.3885 11.1325 67.7878 10.8957C68.2144 10.6607 68.6961 10.5439 69.1829 10.5574C69.5631 10.5479 69.9408 10.62 70.2907 10.7689C70.5972 10.9072 70.8646 11.1194 71.069 11.3865C71.287 11.6766 71.445 12.0072 71.5338 12.359C71.6395 12.7706 71.6907 13.1942 71.6861 13.6191C71.7058 14.2279 71.5935 14.8339 71.3563 15.395Z" fill="white"/>
<path d="M79.1109 9.3143C78.7947 9.39932 78.4926 9.5304 78.2144 9.70331C77.926 9.88355 77.6593 10.0964 77.4196 10.3376C77.3795 10.3776 77.3409 10.4221 77.3011 10.4641V9.20463L75.576 9.45834V17.9997H77.3011V11.6097C77.4293 11.5201 77.562 11.4372 77.6986 11.3611C77.8678 11.2677 78.043 11.1858 78.2232 11.1159C78.3978 11.0482 78.5753 10.989 78.7557 10.9383C78.9414 10.8866 79.1308 10.8497 79.3223 10.8281C79.5273 10.8055 79.7338 10.8 79.9397 10.8114L80.1426 9.22129C79.7959 9.19664 79.4476 9.22803 79.1109 9.3143Z" fill="white"/>
<path d="M86.4514 16.5875C86.3722 16.6044 86.2848 16.621 86.1889 16.6382L85.9017 16.6887C85.8094 16.7053 85.7162 16.7167 85.6226 16.7228C85.532 16.7284 85.4475 16.7312 85.3689 16.7312C85.1098 16.7381 84.8524 16.6861 84.6162 16.579C84.4133 16.4826 84.245 16.3262 84.1342 16.1308C84.0157 15.9101 83.9574 15.6621 83.9651 15.4117V10.7269H86.3499L86.5359 9.37379H83.9651V6.70173L82.2399 7.31063V9.37379H80.9376L80.7512 10.7269H82.2399V15.7671C82.2322 16.1033 82.2838 16.4383 82.3921 16.7566C82.4792 17.0083 82.6141 17.2409 82.7896 17.4413C82.9503 17.6201 83.1461 17.764 83.3647 17.8641C83.5882 17.9671 83.824 18.0411 84.0663 18.0843C84.3062 18.1285 84.5496 18.1511 84.7936 18.1519C84.974 18.1519 85.1517 18.1462 85.3266 18.1348C85.5016 18.1233 85.6623 18.1065 85.8087 18.0843C85.955 18.0615 86.0934 18.0361 86.2231 18.0079C86.3528 17.9797 86.4624 17.9549 86.5526 17.9321L86.6544 16.528C86.5885 16.5535 86.5206 16.5734 86.4514 16.5875Z" fill="white"/>
</svg>

<svg xmlns="http://www.w3.org/2000/svg" viewBox="0 0 93 24"><path fill="#E81502" d="M0 0h93v24H0z"/><path fill="#fff" d="M6.004 18V6.001h3.937V18H6.004Zm9.294-10.09L17.562 18h-4.309L10.55 6.001h2.416a2.276 2.276 0 0 1 1.513.55c.42.345.71.826.82 1.36ZM18.154 18V6.001h3.937V18h-3.937Zm6.91-7.436a2.383 2.383 0 0 1-2.4-2.4 2.303 2.303 0 0 1 .323-1.2 2.411 2.411 0 0 1 3.278-.861c.355.209.652.506.861.861.215.363.326.778.322 1.2a2.4 2.4 0 0 1-1.183 2.079 2.302 2.302 0 0 1-1.2.321ZM28.057 18V6.001h3.937V18h-3.937Zm8.922-5.442c.011.012.096.15.253.414.158.265.364.603.617 1.014a315.936 315.936 0 0 1 1.597 2.62c.247.411.529.876.845 1.394h-4.326c-.27-.44-.516-.837-.735-1.191-.22-.355-.453-.738-.7-1.15-.249-.41-.494-.81-.737-1.2-.242-.389-.45-.73-.625-1.022-.175-.293-.296-.49-.363-.591a1.748 1.748 0 0 1-.287-.845c.017-.29.11-.57.27-.812.068-.113.192-.313.372-.6s.391-.628.633-1.022c.243-.395.488-.797.736-1.209l.7-1.157.736-1.2h4.326l-3.346 5.458a1.08 1.08 0 0 0-.17.542c.012.201.082.395.203.557h.001ZM52.227 12.384a3.205 3.205 0 0 0-.845-.617 6.597 6.597 0 0 0-1.024-.414c-.36-.113-.732-.209-1.116-.288a24.173 24.173 0 0 1-.82-.203 3.775 3.775 0 0 1-.677-.245 2.233 2.233 0 0 1-.515-.339 1.217 1.217 0 0 1-.33-.473 1.83 1.83 0 0 1-.11-.668c-.004-.236.033-.47.11-.694.069-.196.185-.373.338-.516a2.09 2.09 0 0 1 .533-.354c.222-.102.459-.17.701-.203.289-.042.58-.061.871-.06a7.375 7.375 0 0 1 1.59.17c.255.055.507.125.753.21.23.08.454.18.668.297l.237-1.488a4.212 4.212 0 0 0-.753-.305 10.093 10.093 0 0 0-.803-.203 8.026 8.026 0 0 0-.829-.127 8.665 8.665 0 0 0-.863-.042 7.196 7.196 0 0 0-1.775.203c-.495.12-.963.332-1.379.626a2.825 2.825 0 0 0-.896 1.065 3.443 3.443 0 0 0-.313 1.522c-.01.406.056.81.194 1.192.122.32.309.612.55.855.239.238.512.437.812.592.317.163.648.3.99.406.354.113.718.209 1.09.287.305.068.587.138.846.212.241.066.476.154.702.262.194.092.373.211.533.355.15.142.269.315.346.508.09.231.133.479.127.727.005.264-.035.527-.118.778a1.809 1.809 0 0 1-.338.592 1.63 1.63 0 0 1-.542.406 2.733 2.733 0 0 1-.736.22 5.86 5.86 0 0 1-.938.067c-.305 0-.61-.02-.913-.059-.316-.04-.632-.093-.948-.16a9.493 9.493 0 0 1-.921-.246 17.714 17.714 0 0 1-.855-.296l.22 1.675c.289.107.582.2.88.279.27.07.544.127.82.169.265.039.53.07.795.093.265.022.533.034.803.034a8.308 8.308 0 0 0 1.802-.187 4.311 4.311 0 0 0 1.471-.608c.419-.277.757-.66.981-1.108a3.743 3.743 0 0 0 .347-1.7 3.817 3.817 0 0 0-.195-1.286 2.5 2.5 0 0 0-.558-.913ZM61.53 9.72a3.635 3.635 0 0 0-2.021-.532 5.163 5.163 0 0 0-1.252.16 5.442 5.442 0 0 0-1.505.639v-.782l-1.725.27v12.076h1.725v-3.786l.034.015c.312.13.638.223.972.279a6.99 6.99 0 0 0 1.192.093 4.224 4.224 0 0 0 2.174-.559 4.015 4.015 0 0 0 1.522-1.614c.4-.8.594-1.686.566-2.58a5.254 5.254 0 0 0-.431-2.198 3.395 3.395 0 0 0-1.251-1.48Zm-.448 5.658c-.204.45-.544.822-.973 1.065-.477.25-1.01.373-1.548.356a4.822 4.822 0 0 1-1.81-.345v-5.338c.023-.01.046-.024.068-.034.248-.113.48-.209.694-.288a3.476 3.476 0 0 1 1.2-.22 3.125 3.125 0 0 1 1.506.33c.408.222.727.577.905 1.006.215.55.315 1.136.296 1.726a4.04 4.04 0 0 1-.338 1.742ZM71.458 9.729a4.64 4.64 0 0 0-2.292-.541 4.618 4.618 0 0 0-2.309.558 3.9 3.9 0 0 0-1.539 1.573 4.975 4.975 0 0 0-.55 2.401 5.186 5.186 0 0 0 .516 2.393 3.53 3.53 0 0 0 1.48 1.532c.688.36 1.456.54 2.233.524a4.767 4.767 0 0 0 2.334-.558 3.939 3.939 0 0 0 1.582-1.59c.392-.75.587-1.59.566-2.436a4.902 4.902 0 0 0-.524-2.325 3.696 3.696 0 0 0-1.497-1.531Zm-.102 5.666c-.19.44-.512.809-.921 1.057-.412.236-.88.355-1.353.347a2.405 2.405 0 0 1-1.32-.356 2.382 2.382 0 0 1-.88-1.065 4.265 4.265 0 0 1-.32-1.759c-.02-.586.089-1.17.32-1.708.19-.424.506-.778.906-1.015a2.734 2.734 0 0 1 1.395-.339c.38-.01.758.063 1.108.212.306.138.574.35.778.617.218.29.376.621.465.973.105.412.157.835.152 1.26a4.211 4.211 0 0 1-.33 1.776ZM79.11 9.314a3.343 3.343 0 0 0-.896.39c-.288.18-.555.392-.794.634-.04.04-.08.084-.119.126v-1.26l-1.725.254V18h1.725v-6.39a4.313 4.313 0 0 1 .922-.494 5.85 5.85 0 0 1 .533-.178 3.629 3.629 0 0 1 1.184-.127l.203-1.59a3.233 3.233 0 0 0-1.032.093ZM86.451 16.587c-.079.017-.166.034-.262.051l-.287.05a2.493 2.493 0 0 1-.28.035c-.09.005-.174.008-.253.008a1.712 1.712 0 0 1-.753-.152 1.093 1.093 0 0 1-.482-.448 1.427 1.427 0 0 1-.169-.72v-4.684h2.385l.186-1.353h-2.57V6.702l-1.726.609v2.063h-1.302l-.187 1.353h1.489v5.04c-.008.336.044.671.152.99.087.251.222.484.398.684.16.18.356.323.575.423.223.103.459.177.701.22.24.044.484.067.728.068.18 0 .358-.006.533-.017a5.742 5.742 0 0 0 .896-.127c.13-.028.24-.053.33-.076l.101-1.404a1.26 1.26 0 0 1-.203.06Z"/></svg>
